X: 30
T:Fram Apon Him
M:6/8
L:1/8
Q:120
K:D
A|"D"F2 A d2 e|f>gf "A"e2- .f|"G"g2 f "A"e2 c|"G"d2 c "A"{Bc}B2 A|!
"D"F2 A d2 e|f>gf "A7"e2- g|"D"fgf "A7"gec|"D"ddd d2::!
A|"D"F2 A d2 A|"G"BAG "D"F2- .D|"G"GBG "D"AFA|"A"EEE E2- .D|!
"D"F2 A d2 A|"G"BAG "D"F2- .g|fdd "A7"efg|"D"fdd d2:|
